source/presentation/public/images/icons/types/fire.svg

<svg width="1em" height="1em" viewBox="0 0 35 35" xmlns="http://www.w3.org/2000/svg">
<circle cx="17.5" cy="17.5" r="17.5" fill="#DA3D38"/>
<path d="m19.67 30.603c1.6632-0.3883 3.5027-0.9926 4.7633-1.9125 2.7232-1.9871 4.7297-6.895 5.1627-8.0184 0.0227-0.0589-0.0497-0.1063-0.0968-0.0643-0.5717 0.51-2.3598 2.0317-3.7159 2.3827-1.0214 0.2644-2.381-0.0046-2.8406-0.1109-0.0545-0.0126-0.0628-0.0853-0.0126-0.1102 0.5858-0.2901 2.7646-1.4334 3.6032-2.7789 1.1219-1.8001 0.8493-5.0839 0.7684-5.8413-0.0059-0.0552-0.077-0.0712-0.1085-0.0253-0.3191 0.4653-1.432 2.0259-2.4599 2.7166-1.2188 0.819-3.5551 0.8927-3.9821 0.8994-0.0361 5e-4 -0.0643-0.0288-0.0601-0.0647 0.0563-0.4827 0.3872-3.5329-0.0078-5.4847-0.3346-1.6531-0.5796-2.6366-1.5-4.05-0.9375-1.4396-3.0746-2.9092-3.7152-3.3306-0.0511-0.03359-0.1146 0.02237-0.0886 0.0777 0.226 0.48172 0.7639 1.7455 0.6538 2.6529-0.1077 0.8866-0.4663 1.3822-0.9425 2.0403-0.0826 0.11406-0.1686 0.23299-0.2575 0.35969-0.5394 0.76859-1.2355 1.1333-1.9209 1.4923-0.7437 0.3896-1.4747 0.7725-1.9791 1.6577-1.0168 1.7844-0.5724 5.0698-0.4693 5.7319 0.0076 0.0492-0.044 0.0844-0.0875 0.0603-0.3738-0.2069-1.6284-0.9412-2.1432-1.7422-0.90238-1.4041-0.18775-4.0344 0.06807-4.8514 0.01906-0.0609-0.05671-0.1077-0.10082-0.0616-0.58361 0.61-2.3894 2.6017-2.8172 4.313-0.3694 1.4776-0.36465 2.4213 0 3.9 0.38147 1.547 2.2423 3.5671 2.7318 4.0784 0.03923 0.041 0.0051 0.1076-0.0511 0.0999-0.36255-0.0499-1.2262-0.1874-1.7807-0.4283-0.79747-0.3463-1.7058-1.232-2.0776-1.6169-0.04391-0.0454-0.12102-3e-3 -0.10304 0.0576 0.21852 0.7365 0.93497 2.9864 1.8807 4.2593 1.715 2.3084 3.3607 3.3501 6.15 4.05 1.3564 0.3404 3.5613 0.3007 3.5995 0.3 0.0012 0-5e-4 1e-4 7e-4 0 0.0144-0.0012 0.8445-0.0678 2.0263-0.2611-1.1525 0.1079-2.5991 0.0842-3.661-0.1747-1.3722-0.3345-3.5188-1.2811-3.3-3 0.053-0.4164 0.3613-0.6235 0.6713-0.8317 0.3051-0.2049 0.6117-0.4109 0.6787-0.8183 0.0765-0.4661 0.0891-0.7928-0.15-1.2-0.2025-0.3448-0.7403-0.5833-1.0221-0.6888-0.0547-0.0205-0.0542-0.0997 0.0022-0.1153 0.2997-0.0826 0.9085-0.2184 1.3199-0.0959 0.4829 0.1438 0.7407 0.3521 1.05 0.75 0.2115 0.2721 0.3648 0.7505 0.4236 0.954 0.0125 0.0435 0.0664 0.0589 0.0987 0.0272 0.1333-0.1303 0.4144-0.4236 0.5277-0.6812 0.2357-0.5363 0.2424-0.9667 0-1.5-0.1152-0.2534-0.2911-0.3797-0.4753-0.5121-0.1449-0.104-0.295-0.2118-0.4247-0.3879-0.9608-1.3039 0.678-2.9789 1.8-3.6 0.6072-0.3362 1.5174-0.3239 1.8354-0.3077 0.0484 0.0025 0.0723 0.0589 0.0423 0.0969-0.1966 0.2489-0.7326 0.9713-0.8277 1.5608-0.056 0.347-0.0737 0.5563 0 0.9 0.0975 0.4551 0.455 0.6488 0.8176 0.8454 0.3473 0.1882 0.6994 0.3791 0.8324 0.8046 0.1305 0.4176 0.066 1.0481 0.0251 1.3406-0.0078 0.055 0.0579 0.0937 0.1018 0.0596 0.2032-0.1578 0.6103-0.4658 0.9231-0.6502 0.7042-0.4154 1.8592-0.7527 2.2587-0.8623 0.0518-0.0142 0.0936 0.0416 0.0662 0.0878-0.1472 0.2478-0.4765 0.8119-0.6749 1.2245-0.0552 0.1147-0.1091 0.2136-0.1597 0.3067-0.127 0.2332-0.2338 0.4295-0.2903 0.7433-0.0623 0.3459-0.088 0.5597 0 0.9 0.0687 0.2657 0.2233 0.4174 0.3834 0.5746 0.1339 0.1313 0.2717 0.2665 0.3666 0.4754 0.2234 0.4917 0.3555 0.8128 0.3 1.35-0.0382 0.3685-0.1162 0.5783-0.3 0.9-0.2466 0.4315-0.4898 0.6193-0.9 0.9-0.1484 0.1015-0.2899 0.1826-0.4288 0.2483z"/>
</svg>

<svg width="1em" height="1em" viewBox="0 0 35 35" fill="none" xmlns="http://www.w3.org/2000/svg">
<circle cx="17.5" cy="17.5" r="17.5" fill="#DA3D38"/>
<path d="M19.6701 30.6032C21.3333 30.2149 23.1728 29.6106 24.4334 28.6907C27.1566 26.7036 29.1631 21.7957 29.5961 20.6723C29.6188 20.6134 29.5464 20.566 29.4993 20.608C28.9276 21.118 27.1395 22.6397 25.7834 22.9907C24.762 23.2551 23.4024 22.9861 22.9428 22.8798C22.8883 22.8672 22.88 22.7945 22.9302 22.7696C23.516 22.4795 25.6948 21.3362 26.5334 19.9907C27.6553 18.1906 27.3827 14.9068 27.3018 14.1494C27.2959 14.0942 27.2248 14.0782 27.1933 14.1241C26.8742 14.5894 25.7613 16.15 24.7334 16.8407C23.5146 17.6597 21.1783 17.7334 20.7513 17.7401C20.7152 17.7406 20.687 17.7113 20.6912 17.6754C20.7475 17.1927 21.0784 14.1425 20.6834 12.1907C20.3488 10.5376 20.1038 9.55406 19.1834 8.14071C18.2459 6.70112 16.1088 5.23153 15.4682 4.81014C15.4171 4.77655 15.3536 4.83251 15.3796 4.88784C15.6056 5.36956 16.1435 6.63333 16.0334 7.54071C15.9257 8.42731 15.5671 8.9229 15.0909 9.58102C15.0083 9.69508 14.9223 9.81401 14.8334 9.94071C14.294 10.7093 13.5979 11.074 12.9125 11.433C12.1688 11.8226 11.4378 12.2055 10.9334 13.0907C9.9166 14.8751 10.361 18.1605 10.4641 18.8226C10.4717 18.8718 10.4201 18.907 10.3766 18.8829C10.0028 18.676 8.74816 17.9417 8.23337 17.1407C7.33099 15.7366 8.04562 13.1063 8.30144 12.2893C8.3205 12.2284 8.24473 12.1816 8.20062 12.2277C7.61701 12.8377 5.8112 14.8294 5.38337 16.5407C5.01397 18.0183 5.01872 18.962 5.38337 20.4407C5.76484 21.9877 7.62569 24.0078 8.11519 24.5191C8.15442 24.5601 8.12029 24.6267 8.06409 24.619C7.70154 24.5691 6.83794 24.4316 6.28337 24.1907C5.4859 23.8444 4.57753 22.9587 4.20572 22.5738C4.16181 22.5284 4.0847 22.5708 4.10268 22.6314C4.3212 23.3679 5.03765 25.6178 5.98337 26.8907C7.69837 29.1991 9.3441 30.2408 12.1334 30.9407C13.4898 31.2811 15.6947 31.2414 15.7329 31.2407C15.7341 31.2407 15.7324 31.2408 15.7336 31.2407C15.748 31.2395 16.5781 31.1729 17.7599 30.9796C16.6074 31.0875 15.1608 31.0638 14.0989 30.8049C12.7267 30.4704 10.5801 29.5238 10.7989 27.8049C10.8519 27.3885 11.1602 27.1814 11.4702 26.9732C11.7753 26.7683 12.0819 26.5623 12.1489 26.1549C12.2254 25.6888 12.238 25.3621 11.9989 24.9549C11.7964 24.6101 11.2586 24.3716 10.9768 24.2661C10.9221 24.2456 10.9226 24.1664 10.979 24.1508C11.2787 24.0682 11.8875 23.9324 12.2989 24.0549C12.7818 24.1987 13.0396 24.407 13.3489 24.8049C13.5604 25.077 13.7137 25.5554 13.7725 25.7589C13.785 25.8024 13.8389 25.8178 13.8712 25.7861C14.0045 25.6558 14.2856 25.3625 14.3989 25.1049C14.6346 24.5686 14.6413 24.1382 14.3989 23.6049C14.2837 23.3515 14.1078 23.2252 13.9236 23.0928C13.7787 22.9888 13.6286 22.881 13.4989 22.7049C12.5381 21.401 14.1769 19.726 15.2989 19.1049C15.9061 18.7687 16.8163 18.781 17.1343 18.7972C17.1827 18.7997 17.2066 18.8561 17.1766 18.8941C16.98 19.143 16.444 19.8654 16.3489 20.4549C16.2929 20.8019 16.2752 21.0112 16.3489 21.3549C16.4464 21.81 16.8039 22.0037 17.1665 22.2003C17.5138 22.3885 17.8659 22.5794 17.9989 23.0049C18.1294 23.4225 18.0649 24.053 18.024 24.3455C18.0162 24.4005 18.0819 24.4392 18.1258 24.4051C18.329 24.2473 18.7361 23.9393 19.0489 23.7549C19.7531 23.3395 20.9081 23.0022 21.3076 22.8926C21.3594 22.8784 21.4012 22.9342 21.3738 22.9804C21.2266 23.2282 20.8973 23.7923 20.6989 24.2049C20.6437 24.3196 20.5898 24.4185 20.5392 24.5116C20.4122 24.7448 20.3054 24.9411 20.2489 25.2549C20.1866 25.6008 20.1609 25.8146 20.2489 26.1549C20.3176 26.4206 20.4722 26.5723 20.6323 26.7295C20.7662 26.8608 20.904 26.996 20.9989 27.2049C21.2223 27.6966 21.3544 28.0177 21.2989 28.5549C21.2607 28.9234 21.1827 29.1332 20.9989 29.4549C20.7523 29.8864 20.5091 30.0742 20.0989 30.3549C19.9505 30.4564 19.809 30.5375 19.6701 30.6032Z" fill="black"/>
</svg>
